inst/assets/svg/wi-night-alt-partly-cloudy.svg

<?xml version="1.0" encoding="UTF-8"?>
<svg xmlns="http://www.w3.org/2000/svg" xmlns:xlink="http://www.w3.org/1999/xlink" width="30pt" height="30pt" viewBox="0 0 30 30" version="1.1">
<g id="surface631">
<path style=" stroke:none;fill-rule:nonzero;fill:rgb(0%,0%,0%);fill-opacity:1;" d="M 6.769531 19.648438 C 6.769531 18.859375 7 18.171875 7.449219 17.558594 C 7.898438 16.949219 8.511719 16.53125 9.261719 16.289063 C 9.578125 15.199219 10.238281 14.371094 11.25 13.800781 L 11.25 13.449219 C 11.25 11.988281 11.710938 10.710938 12.628906 9.601563 C 13.550781 8.488281 14.71875 7.800781 16.128906 7.539063 C 16.488281 7.480469 16.851563 7.449219 17.210938 7.449219 L 17.238281 7.449219 C 17.449219 7.449219 17.679688 7.46875 17.941406 7.5 C 18.199219 7.519531 18.441406 7.558594 18.671875 7.609375 L 19.578125 7.890625 C 19.710938 7.960938 19.761719 8.050781 19.738281 8.148438 L 19.609375 8.851563 C 19.539063 9.179688 19.5 9.5 19.5 9.820313 C 19.5 10.171875 19.550781 10.53125 19.660156 10.890625 C 19.769531 11.261719 19.929688 11.609375 20.160156 11.96875 C 20.390625 12.328125 20.679688 12.648438 21.070313 12.941406 C 21.449219 13.230469 21.898438 13.449219 22.398438 13.601563 L 23.109375 13.808594 C 23.21875 13.839844 23.28125 13.890625 23.28125 13.988281 C 23.28125 14.03125 23.28125 14.050781 23.269531 14.058594 L 23.089844 14.738281 C 23.03125 14.980469 22.960938 15.230469 22.871094 15.46875 C 22.71875 15.910156 22.488281 16.359375 22.171875 16.839844 C 22.171875 16.828125 22.171875 16.828125 22.160156 16.828125 C 21.71875 17.460938 21.179688 17.988281 20.519531 18.410156 C 20.660156 18.75 20.730469 19.160156 20.730469 19.648438 C 20.730469 20.640625 20.378906 21.480469 19.691406 22.179688 C 19 22.878906 18.171875 23.230469 17.199219 23.230469 L 10.351563 23.230469 C 9.378906 23.230469 8.539063 22.878906 7.828125 22.171875 C 7.128906 21.460938 6.769531 20.621094 6.769531 19.648438 Z M 8.75 19.648438 C 8.75 20.101563 8.898438 20.480469 9.210938 20.800781 C 9.519531 21.121094 9.898438 21.269531 10.351563 21.269531 L 17.199219 21.269531 C 17.628906 21.269531 18 21.109375 18.320313 20.789063 C 18.640625 20.46875 18.789063 20.089844 18.789063 19.648438 C 18.789063 19.21875 18.628906 18.851563 18.320313 18.53125 C 18.011719 18.210938 17.628906 18.058594 17.199219 18.058594 L 15.898438 18.058594 C 15.789063 18.058594 15.710938 17.988281 15.648438 17.828125 L 15.570313 17.191406 C 15.5 16.609375 15.25 16.128906 14.820313 15.75 C 14.390625 15.371094 13.890625 15.171875 13.308594 15.171875 C 12.738281 15.171875 12.25 15.359375 11.828125 15.75 C 11.410156 16.140625 11.171875 16.621094 11.101563 17.191406 L 11 17.738281 C 11 17.890625 10.941406 17.960938 10.808594 17.960938 L 10.179688 18.039063 C 9.769531 18.078125 9.429688 18.25 9.160156 18.550781 C 8.890625 18.871094 8.75 19.230469 8.75 19.648438 Z M 13.179688 13.25 L 13.300781 13.25 C 14.230469 13.25 15.050781 13.511719 15.789063 14.03125 C 16.519531 14.550781 17.039063 15.25 17.328125 16.128906 C 18.101563 16.128906 18.78125 16.371094 19.359375 16.851563 C 20.050781 16.421875 20.558594 15.828125 20.890625 15.101563 C 19.851563 14.578125 19.039063 13.828125 18.460938 12.851563 C 17.878906 11.871094 17.578125 10.839844 17.578125 9.738281 L 17.578125 9.390625 C 17.550781 9.390625 17.511719 9.390625 17.460938 9.390625 C 17.410156 9.390625 17.371094 9.390625 17.339844 9.390625 C 16.730469 9.390625 16.140625 9.519531 15.570313 9.78125 C 15 10.039063 14.519531 10.421875 14.128906 10.898438 L 14.101563 10.878906 C 13.550781 11.558594 13.25 12.351563 13.179688 13.25 Z M 13.179688 13.25 "/>
</g>
</svg>

<?xml version="1.0" encoding="utf-8"?>
<!-- Generator: Adobe Illustrator 22.0.1, SVG Export Plug-In . SVG Version: 6.00 Build 0)  -->
<svg version="1.1" id="Layer_1" xmlns="http://www.w3.org/2000/svg" xmlns:xlink="http://www.w3.org/1999/xlink" x="0px" y="0px"
	 viewBox="0 0 30 30" style="enable-background:new 0 0 30 30;" xml:space="preserve">
<path d="M6.77,19.65c0-0.79,0.23-1.48,0.68-2.09c0.45-0.61,1.06-1.03,1.81-1.27c0.32-1.09,0.98-1.92,1.99-2.49v-0.35
	c0-1.46,0.46-2.74,1.38-3.85s2.09-1.8,3.5-2.06c0.36-0.06,0.72-0.09,1.08-0.09h0.03c0.21,0,0.44,0.02,0.7,0.05
	c0.26,0.02,0.5,0.06,0.73,0.11l0.91,0.28c0.13,0.07,0.18,0.16,0.16,0.26l-0.13,0.7C19.54,9.18,19.5,9.5,19.5,9.82
	c0,0.35,0.05,0.71,0.16,1.07c0.11,0.37,0.27,0.72,0.5,1.08s0.52,0.68,0.91,0.97c0.38,0.29,0.83,0.51,1.33,0.66l0.71,0.21
	c0.11,0.03,0.17,0.08,0.17,0.18c0,0.04,0,0.06-0.01,0.07l-0.18,0.68c-0.06,0.24-0.13,0.49-0.22,0.73c-0.15,0.44-0.38,0.89-0.7,1.37
	c0-0.01,0-0.01-0.01-0.01c-0.44,0.63-0.98,1.16-1.64,1.58c0.14,0.34,0.21,0.75,0.21,1.24c0,0.99-0.35,1.83-1.04,2.53
	c-0.69,0.7-1.52,1.05-2.49,1.05h-6.85c-0.97,0-1.81-0.35-2.52-1.06C7.13,21.46,6.77,20.62,6.77,19.65z M8.75,19.65
	c0,0.45,0.15,0.83,0.46,1.15s0.69,0.47,1.14,0.47h6.85c0.43,0,0.8-0.16,1.12-0.48c0.32-0.32,0.47-0.7,0.47-1.14
	c0-0.43-0.16-0.8-0.47-1.12s-0.69-0.47-1.12-0.47H15.9c-0.11,0-0.19-0.07-0.25-0.23l-0.08-0.64c-0.07-0.58-0.32-1.06-0.75-1.44
	s-0.93-0.58-1.51-0.58c-0.57,0-1.06,0.19-1.48,0.58c-0.42,0.39-0.66,0.87-0.73,1.44l-0.1,0.55c0,0.15-0.06,0.22-0.19,0.22
	l-0.63,0.08c-0.41,0.04-0.75,0.21-1.02,0.51C8.89,18.87,8.75,19.23,8.75,19.65z M13.18,13.25h0.12c0.93,0,1.75,0.26,2.49,0.78
	c0.73,0.52,1.25,1.22,1.54,2.1c0.77,0,1.45,0.24,2.03,0.72c0.69-0.43,1.2-1.02,1.53-1.75c-1.04-0.52-1.85-1.27-2.43-2.25
	s-0.88-2.01-0.88-3.11V9.39c-0.03,0-0.07,0-0.12,0c-0.05,0-0.09,0-0.12,0c-0.61,0-1.2,0.13-1.77,0.39
	c-0.57,0.26-1.05,0.64-1.44,1.12l-0.03-0.02C13.55,11.56,13.25,12.35,13.18,13.25z"/>
</svg>
